X: 1129
T: Som förr
O: Östbjörka, Dalarna
C: Pers Erik
R: Polska
Z: Håkan Lidén, 2009-02-02
M: 3/4
L: 1/8
K: Ador
A>B c<B A>G | A<c e4 | e>f g2 f>e | d<e c2 B2 | 
A>B c<B A>G | A<c e4 | e>g b>b a>a | g2 e4 :|
|: (3:2:4z2 g2 fg a>g | (3g2 e2 c2 d2- | dc/d/ ec A>B | (3:2:5 c2 Bc BG A2- | 
(3:2:4A2 g2 fg a>g | (3g2 e2 c2 d2- | dc/d/ ec A>B | cB/c/ dc B>A | ^G<B A4 :|
(:musicend:)

%blue%En orsapolska som jag inte för mitt liv kan komma på var jag hört. Eftersom jag har väldigt [[!lite information]] (obefintlig!) vore jag tacksam ifall någon kan hjälpa mig med den. /Håkan

%green% Tycker att det verkar vara Bodalåten "Som förr" eller kanske en variant/Jon

%red% Jag lärde mig den av Maria Röjås i Malung hösten 2001. Hon kallade den "Som förr" och sjöng den som en typisk bodapolska. Tonalt är den närmast identisk med versionen på denna sida. Jag ändrar titeln och ursprungsorten, om du misstycker får du väl ändra tillbaka! /Erik

%green% Susanne Gunn har skrivit i 'sammanfattnings'-rutan - "Som förr" efter Pers Erik, alltså en rättvikslåt, finns på cd:n "Låtar från Rättvik, Boda,

Pers Hans Har polskan med på CD:n "Låtar inifrån". Pers Erik har enligt konvolutet gjort polskan. S Roos

Gick en låtkurs med Pers Hans 2012 då han lärde ut denna och uppgav sin far Pers Erik som upphovsman /Robert Boström
(:music:)
